X: 1
T: Journey Home
C: Lorna A. McDougall (2007)
R: waltz
Z: 2007 John Chambers <jc:trillian.mit.edu>
S: printed MS from scotchsnap.com
M: 3/4
L: 1/8
K: C
[| G2 A2 c2 | d2 e2 c2 | G2 A2 d2 | c4 e2 | f2 g2 f2 | e2 g2 c2 | d4 c2    | A4 G2 |
 | A2 G2 A2 | c2 d2 e2 | f2 e2 c2 | A4 G2 | A2 G2 A2 | c2 d2 e2 | d2 c2 A2 | c6    |]
